packages/ffe-icons/icons/filled/md/cloud_circle.svg

<svg xmlns="http://www.w3.org/2000/svg" height="24" viewBox="0 -960 960 960" width="24"><path d="M340-340.001h300q41.922 0 70.961-29.038 29.038-29.039 29.038-70.961 0-41.153-28.846-70.576-28.846-29.423-71.153-29.423h-20.001v-11.923q-4.923-53.385-44.731-90.731-39.807-37.346-91.191-37.346-48.308 0-85.769 26.962-37.461 26.962-50.922 73.038h-12.309q-48.922 3.077-81.999 36.962-33.077 33.884-33.077 82.652 0 49.873 35.038 85.128 35.039 35.256 84.961 35.256Zm140.067 240q-78.836 0-148.204-29.92-69.369-29.92-120.682-81.21-51.314-51.291-81.247-120.629-29.933-69.337-29.933-148.173t29.92-148.204q29.92-69.369 81.21-120.682 51.291-51.314 120.629-81.247 69.337-29.933 148.173-29.933t148.204 29.92q69.369 29.92 120.682 81.21 51.314 51.291 81.247 120.629 29.933 69.337 29.933 148.173t-29.92 148.204q-29.92 69.369-81.21 120.682-51.291 51.314-120.629 81.247-69.337 29.933-148.173 29.933Z"/></svg>

<svg xmlns="http://www.w3.org/2000/svg" height="24" viewBox="0 -960 960 960" width="24"><path d="M340-340h300q41.92 0 70.96-29.04Q740-398.08 740-440q0-41.15-28.85-70.58Q682.31-540 640-540h-20v-11.92q-4.92-53.39-44.73-90.73Q535.46-680 484.08-680q-48.31 0-85.77 26.96-37.46 26.96-50.92 73.04h-12.31q-48.93 3.08-82 36.96Q220-509.15 220-460.38q0 49.87 35.04 85.12Q290.08-340 340-340Zm140.07 240q-78.84 0-148.21-29.92t-120.68-81.21q-51.31-51.29-81.25-120.63Q100-401.1 100-479.93q0-78.84 29.92-148.21t81.21-120.68q51.29-51.31 120.63-81.25Q401.1-860 479.93-860q78.84 0 148.21 29.92t120.68 81.21q51.31 51.29 81.25 120.63Q860-558.9 860-480.07q0 78.84-29.92 148.21t-81.21 120.68q-51.29 51.31-120.63 81.25Q558.9-100 480.07-100Z"/></svg>
